!!!OTL: FRIDERICUS REX UNSER KOENIG
!!!ARE: Europa, Mitteleuropa, Deutschland
!!!SCT: F0565
!!!YEM: Copyright 1995, estate of Helmut Schaffrath.
**kern
*ICvox
*Ivox
*M4/4
*k[f#c#g#]
*A:
{16e
16e
8e
8e
=1
4.a
8a
4a
8a
8b
=2
4.cc#
4r}
{8b
8cc#
8dd
=3
4ee
8ee
8ee
8ee
8dd
8dd
8cc#
=4
4b
8r}
{8cc#
8b
8a
8b
8cc#
=5
4dd
8cc#
8b
4cc#
8cc#
8dd
=6
4.ee}
{8ee
8dd
8cc#
8dd
8ee
=7
4cc#
8ee
8dd
4cc#
8b
8cc#
=8
8a
4a
4r}
==
!!!AGN: Soldaten -, Kriegs - Lied
!!!ONB: ESAC (Essen Associative Code) Database: FINK
!!!AMT: simple quadruple
!!!AIN: vox
!!!EED: Helmut Schaffrath
!!!EEV: 1.0
*-
